U-commodities/img/partners/green-acer.svg

<svg width="160" height="40" viewBox="0 0 160 40" fill="none" xmlns="http://www.w3.org/2000/svg">
<path d="M157.694 2.79936C157.141 2.05954 156.588 1.50468 153.823 1.31972C153.085 1.31972 150.873 1.13477 147.001 1.13477C136.861 1.13477 129.854 4.279 126.351 10.3825C127.273 4.279 121.373 1.13477 108.468 1.13477C93.3492 1.13477 83.762 7.23828 79.8902 19.6303C78.4153 24.2541 78.4153 27.9532 79.5215 30.9125H75.8341C73.0685 31.0975 69.3811 31.2824 66.9843 31.2824C61.4532 31.2824 57.9502 30.3577 56.6596 28.5081C55.5534 26.8435 55.5534 23.6993 57.0284 19.0754C59.4252 11.4922 65.1406 8.16306 74.3591 8.16306C79.1527 8.16306 83.762 8.71792 83.762 8.71792C84.3151 8.71792 84.6838 7.9781 84.6838 7.42323L84.4995 6.86837L84.1307 4.279C83.9464 2.61441 82.6558 1.68963 80.4433 1.31972C78.4153 1.13477 76.7559 1.13477 74.5435 1.13477C74.5435 1.13477 74.5435 1.13477 74.3591 1.13477C62.3751 1.13477 53.8941 5.20378 49.2848 12.9719C50.9441 5.01882 45.413 1.13477 32.6915 1.13477C25.5011 1.13477 20.3387 1.31972 17.3888 1.68963C14.992 2.05954 13.5171 2.98431 12.9639 4.64891L11.8577 7.9781C11.6734 8.53297 12.0421 8.90288 12.7796 8.90288C13.3327 8.90288 15.5451 8.53296 19.2325 8.34801C24.2105 7.9781 27.7135 7.79315 30.1103 7.79315C37.1164 7.79315 40.2507 9.6427 39.1445 13.1568C38.9601 13.8967 38.407 14.4515 37.4851 14.6365C30.8478 15.7462 25.5011 16.486 21.6293 17.0409C10.5671 18.5205 4.11418 21.8497 2.45486 27.3984C0.0580466 34.9815 5.95788 38.6806 20.1544 38.6806C27.1604 38.6806 33.2446 38.3107 38.0383 37.3859C40.8038 36.8311 42.2788 36.2762 42.8319 34.4267L45.413 25.9187C45.2287 34.4267 50.9441 38.6806 63.1126 38.6806C68.2749 38.6806 73.2529 38.4957 75.6497 38.1258C78.0465 37.7559 79.3371 37.201 79.8902 35.3514L80.4433 32.7621C83.0245 36.8311 88.74 38.8656 97.4054 38.8656C106.624 38.8656 111.971 38.6806 113.446 38.1258C114.736 37.7559 115.474 37.016 115.842 36.0913C115.842 35.9063 115.842 35.7214 116.027 35.5364L117.133 32.0223C117.317 31.4674 116.949 31.0975 116.211 31.0975L110.311 31.4674C106.439 31.6523 103.305 31.8373 101.093 31.8373C96.8523 31.8373 94.0867 31.4674 92.4274 30.9125C90.0306 29.9877 88.9243 28.3232 89.1087 25.5488L107.73 23.1444C116.027 22.0347 121.742 19.4453 124.508 15.3763L118.055 37.016C117.87 37.3859 118.055 37.7559 118.239 37.9408C118.424 38.1258 118.792 38.3107 119.53 38.3107H127.273C128.564 38.3107 129.117 37.5709 129.301 37.016L136.123 13.1568C137.045 10.0126 139.81 8.53297 144.973 8.53297C149.582 8.53297 152.901 8.53297 155.113 8.71792H155.298C155.666 8.71792 156.404 8.53297 156.957 7.60819L158.063 4.279C158.063 3.72414 158.063 3.16927 157.694 2.79936ZM33.429 31.2824C31.0322 31.6523 27.5292 31.8373 23.1043 31.8373C15.1764 31.8373 11.8577 30.1727 12.7796 27.0285C13.517 24.809 15.5451 23.3294 18.8638 22.9595L36.7477 20.555L33.429 31.2824ZM115.842 12.0471C115.105 14.4515 111.602 16.1161 105.333 17.0409L90.3993 19.0754L90.768 17.7807C92.0586 13.7117 93.718 11.1223 95.9304 9.6427C98.1428 8.16306 101.83 7.42323 106.993 7.42323C113.814 7.60819 116.764 9.08783 115.842 12.0471Z" fill="#8BB539"/>
</svg>

<svg width="160" height="40" fill="none" xmlns="http://www.w3.org/2000/svg"><path d="M157.694 2.8c-.553-.74-1.106-1.295-3.871-1.48-.738 0-2.95-.185-6.822-.185-10.14 0-17.147 3.144-20.65 9.248.922-6.104-4.978-9.248-17.883-9.248-15.119 0-24.706 6.103-28.578 18.495-1.475 4.624-1.475 8.323-.368 11.283h-3.688c-2.766.184-6.453.37-8.85.37-5.53 0-9.034-.925-10.324-2.775-1.107-1.665-1.107-4.809.368-9.433 2.397-7.583 8.113-10.912 17.331-10.912 4.794 0 9.403.555 9.403.555.553 0 .922-.74.922-1.295l-.184-.555-.37-2.589c-.184-1.665-1.474-2.59-3.687-2.96-2.028-.184-3.687-.184-5.9-.184h-.184c-11.984 0-20.465 4.069-25.074 11.837 1.66-7.953-3.872-11.837-16.593-11.837-7.19 0-12.353.185-15.303.555-2.397.37-3.872 1.294-4.425 2.959l-1.106 3.33c-.185.554.184.924.922.924.553 0 2.765-.37 6.453-.555 4.977-.37 8.48-.555 10.877-.555 7.006 0 10.14 1.85 9.035 5.364-.185.74-.738 1.294-1.66 1.48-6.637 1.11-11.984 1.849-15.856 2.404C10.567 18.52 4.114 21.85 2.455 27.398c-2.397 7.583 3.503 11.283 17.7 11.283 7.005 0 13.09-.37 17.883-1.295 2.766-.555 4.24-1.11 4.794-2.96l2.581-8.507c-.184 8.508 5.531 12.762 17.7 12.762 5.162 0 10.14-.185 12.537-.555 2.396-.37 3.687-.925 4.24-2.775l.553-2.589c2.582 4.07 8.297 6.104 16.962 6.104 9.219 0 14.566-.185 16.041-.74 1.29-.37 2.028-1.11 2.396-2.035 0-.185 0-.37.185-.555l1.106-3.514c.184-.555-.184-.924-.922-.924l-5.9.37c-3.872.184-7.006.37-9.218.37-4.24 0-7.006-.37-8.666-.925-2.396-.925-3.503-2.59-3.318-5.364l18.621-2.405c8.297-1.11 14.012-3.699 16.778-7.768l-6.453 21.64c-.185.37 0 .74.184.925.185.185.553.37 1.291.37h7.743c1.291 0 1.844-.74 2.028-1.295l6.822-23.86c.922-3.143 3.687-4.623 8.85-4.623 4.609 0 7.928 0 10.14.185h.185c.368 0 1.106-.185 1.659-1.11l1.106-3.329c0-.555 0-1.11-.369-1.48zM33.429 31.281c-2.397.37-5.9.555-10.325.555-7.928 0-11.246-1.664-10.324-4.808.737-2.22 2.765-3.7 6.084-4.07l17.884-2.404-3.319 10.727zm82.413-19.235c-.737 2.404-4.24 4.07-10.509 4.994l-14.934 2.034.369-1.294c1.29-4.07 2.95-6.659 5.162-8.138 2.213-1.48 5.9-2.22 11.063-2.22 6.821.185 9.771 1.665 8.849 4.624z" fill="#8BB539"/></svg>
